assets/01_base/Base_23.svg

<svg width="500" height="500" viewBox="0 0 500 500" fill="none" xmlns="http://www.w3.org/2000/svg">
<g clip-path="url(#clip0_70_282)">
<g clip-path="url(#clip1_70_282)">
<path d="M405.725 245.263C457.8 245.263 500.014 203.006 500.014 150.879C500.014 98.7512 457.8 56.4937 405.725 56.4937C353.651 56.4937 311.437 98.7512 311.437 150.879C311.437 203.006 353.651 245.263 405.725 245.263Z" fill="#FFCF4B"/>
<path d="M95.2888 245.263C147.363 245.263 189.578 203.006 189.578 150.879C189.578 98.7512 147.363 56.4937 95.2888 56.4937C43.2145 56.4937 1 98.7512 1 150.879C1 203.006 43.2145 245.263 95.2888 245.263Z" fill="#FFCF4B"/>
<path d="M445.055 251.254C445.055 358.832 357.948 446 250.507 446C143.067 446 55.9453 358.818 55.9453 251.254C55.9453 236.779 57.5319 222.695 60.5101 209.139C79.7437 121.818 157.527 56.4937 250.507 56.4937C343.488 56.4937 421.257 121.818 440.504 209.139C443.483 222.695 445.069 236.779 445.069 251.254H445.055Z" fill="#2D3791"/>
<path d="M443.608 209.139H57.4062C76.9599 120.397 155.995 54 250.507 54C345.018 54 424.054 120.397 443.608 209.139Z" fill="#FFCF4B"/>
</g>
</g>
<defs>
<clipPath id="clip0_70_282">
<rect width="500" height="500" fill="white"/>
</clipPath>
<clipPath id="clip1_70_282">
<rect width="499" height="392" fill="white" transform="translate(1 54)"/>
</clipPath>
</defs>
</svg>

<svg xmlns="http://www.w3.org/2000/svg" width="500" height="500" fill="none" viewBox="0 0 500 500"><g clip-path="url(#a)"><g clip-path="url(#b)"><path fill="#ffcf4b" d="M405.725 245.263c52.075 0 94.289-42.257 94.289-94.384S457.8 56.494 405.725 56.494c-52.074 0-94.288 42.257-94.288 94.385 0 52.127 42.214 94.384 94.288 94.384m-310.436 0c52.074 0 94.289-42.257 94.289-94.384s-42.215-94.385-94.29-94.385C43.216 56.494 1 98.75 1 150.879c0 52.127 42.215 94.384 94.289 94.384"/><path fill="#2d3791" d="M445.055 251.254C445.055 358.832 357.948 446 250.507 446c-107.44 0-194.562-87.182-194.562-194.746a196 196 0 0 1 4.565-42.115c19.234-87.321 97.017-152.645 189.997-152.645s170.75 65.324 189.997 152.645a196 196 0 0 1 4.565 42.115z"/><path fill="#ffcf4b" d="M443.608 209.139H57.406C76.96 120.397 155.995 54 250.507 54c94.511 0 173.547 66.397 193.101 155.139"/></g></g><defs><clipPath id="a"><path fill="#fff" d="M0 0h500v500H0z"/></clipPath><clipPath id="b"><path fill="#fff" d="M1 54h499v392H1z"/></clipPath></defs></svg>
